X: 44
T: POLKAS: Roundabout Set
T: Roundabout
C: C: Dave Hennessy / Trad.; S: Various
C: Set Leaders: Sophie, Anton
Z: Anton Zille ed., Oleg Naumov arr.; gian marco / John E Roche / ceolachan at The Session
N: https://thesession.org/members/26966/sets/99417
R: Polka
M: 2/4
L: 1/8
Q: 1/4=140
K: Dmaj
|:A,|"D"DE FG|AB/A/ FA|"A"GA/G/ FE|"D"DF A,2|
"D"DE FG|AB/A/ FA|"A"GA/G/ FE|"D"D2 D:||
|:F|"A"E2 FE|"D"DF AF|"A"E>E FE|"Bm"DB, B,A,|
"A"E2 FE|"D"DF AF|"G"GA/G/ "A"FE|"D"D2 D:||
T: Gallope / Ballyoran / Paddy Spillane's
K: Dmaj
A,|: "D"D2 FD/F/ | AF/A/ dF | "G"AG GE | "A"BA FA |
"D"D2 FD/F/ | AF/A/ dF | "G"AG "A"GE |1 "D"ED DA, :|2 "D"ED D2||
|: "G"AG GE |"D"BA F>G | "G"AG GE | "A"BA FA |
"D/B"D2 "(D/A)"FD/F/ | "G"AF/A/ "D/F#"dF | "G"AG "A"GE | "D"ED D2 :||
T: Many a Wild Night
K: Dmaj
|:"D"Ad dc/B/|AF "D/F#"FE/F/|"G"GB BA|"A"FD D>B|
"D"Ad dc/B/|AF "D/F#"FE/F/|"G"GE "A"BA|1 "D"D2 "A"D>B:|2 "D"D2 "A"D2||
"D"dA/d/ fa|"Em"ge ed|"A"cA/c/ eg|"D"fd dA|
"Bm"dA/d/ fa|"Em"ge ed|"A"ce ba|"D"d2 dA|
"D"dA/d/ fa|"Em"ge ed|"A"c/B/A/B/ c/d/e/g/|"D"fd dA|
"Bm"dA/d/ fa|"Em"ge ed|"A"ce ba|"D"d2 d2||

